app/assets/images/WCA Logo.svg

<?xml version="1.0" encoding="UTF-8" standalone="no"?>
<!-- Created with Inkscape (http://www.inkscape.org/) -->

<svg
   width="292.72525"
   height="292.72501"
   id="svg2"
   sodipodi:version="0.32"
   inkscape:version="1.3.2 (091e20e, 2023-11-25)"
   sodipodi:docname="WCA Logo.svg"
   inkscape:output_extension="org.inkscape.output.svg.inkscape"
   version="1.0"
   xml:space="preserve"
   inkscape:export-filename="../../../public/files/wca_icon_only.png"
   inkscape:export-xdpi="335.96533"
   inkscape:export-ydpi="335.96533"
   xmlns:inkscape="http://www.inkscape.org/namespaces/inkscape"
   xmlns:sodipodi="http://sodipodi.sourceforge.net/DTD/sodipodi-0.dtd"
   xmlns="http://www.w3.org/2000/svg"
   xmlns:svg="http://www.w3.org/2000/svg"
   xmlns:rdf="http://www.w3.org/1999/02/22-rdf-syntax-ns#"
   xmlns:cc="http://creativecommons.org/ns#"
   xmlns:dc="http://purl.org/dc/elements/1.1/"><defs
     id="defs4"><inkscape:perspective
       sodipodi:type="inkscape:persp3d"
       inkscape:vp_x="0 : 525.71265 : 1"
       inkscape:vp_y="0 : 1000 : 0"
       inkscape:vp_z="744.09448 : 525.71265 : 1"
       inkscape:persp3d-origin="372.04724 : 350.31895 : 1"
       id="perspective10" /><inkscape:perspective
       id="perspective2708"
       inkscape:persp3d-origin="0.5 : -0.13511149 : 1"
       inkscape:vp_z="1 : 0.031555176 : 1"
       inkscape:vp_y="0 : 1000 : 0"
       inkscape:vp_x="0 : 0.031555176 : 1"
       sodipodi:type="inkscape:persp3d" /></defs><sodipodi:namedview
     id="base"
     pagecolor="#ffffff"
     bordercolor="#666666"
     borderopacity="1.0"
     gridtolerance="10000"
     guidetolerance="10"
     objecttolerance="10"
     inkscape:pageopacity="0.0"
     inkscape:pageshadow="2"
     inkscape:zoom="2.0302987"
     inkscape:cx="93.089753"
     inkscape:cy="170.41828"
     inkscape:document-units="px"
     inkscape:current-layer="g3312"
     showgrid="false"
     showguides="true"
     inkscape:guide-bbox="true"
     inkscape:window-width="1800"
     inkscape:window-height="1097"
     inkscape:window-x="0"
     inkscape:window-y="44"
     inkscape:showpageshadow="2"
     inkscape:pagecheckerboard="0"
     inkscape:deskcolor="#d1d1d1"
     inkscape:window-maximized="0" /><metadata
     id="metadata7"><rdf:RDF><cc:Work
         rdf:about=""><dc:format>image/svg+xml</dc:format><dc:type
           rdf:resource="http://purl.org/dc/dcmitype/StillImage" /></cc:Work></rdf:RDF></metadata><g
     inkscape:label="Layer 1"
     inkscape:groupmode="layer"
     id="layer1"
     transform="translate(-440.9061,488.30753)"><g
       id="g3312"
       transform="matrix(0.499989,0,0,0.499989,301.618,-244.854)"><path
         style="fill:#ddda45"
         d="m 573.68539,-420.1139 c -0.024,-22.87397 -0.026,-31.86369 -5.7e-4,-66.80447 120.72052,-0.20391 208.79981,73.54821 249.85002,144.7927 -51.70988,30.08713 -57.38751,33.35974 -57.38751,33.35974 -37.92855,-64.86818 -110.15284,-110.57228 -192.46194,-111.34797 z"
         id="path8"
         sodipodi:nodetypes="ccccc" /><path
         style="fill:#ddda45"
         d="m 378.94821,-82.4139 0.0173,-219.96377 190.14321,109.81717 -0.20509,218.9279 C 505.27033,-9.3445518 378.94821,-82.4139 378.94821,-82.4139 Z"
         id="path2730" /><path
         sodipodi:nodetypes="ccccc"
         style="fill:#e7762a"
         d="m 768.51842,-82.684194 c 41.54138,-74.988706 34.9409,-159.138396 -0.0341,-222.019506 0.45369,-1.1825 38.32522,-22.14818 57.38318,-33.37066 58.66,107.44561 41.82569,216.70743 0.16275,288.696156 -23.31082,-13.08668 -35.58051,-20.368143 -57.51178,-33.30599 z"
         id="path2726" /><path
         style="fill:#e02826"
         d="m 316.10392,-337.50816 57.66718,32.38539 c -40.29696,80.9231 -36.51812,142.25774 -0.32872,222.33678 l -57.41881,32.897031 c -57.75083,-104.048031 -41.37164,-214.335501 0.0804,-287.619201 z"
         id="path4" /><path
         style="fill:#e02826"
         d="m 573.67282,-192.56755 c 64.29262,-37.49558 189.67915,-108.93736 189.67915,-108.93736 -0.77393,146.84157 0.0609,9.34343 -0.24972,219.153082 -62.29182,37.076349 -120.52156,69.866445 -189.54695,108.719228 -0.36127,-46.067781 0.11752,-53.392254 0.11752,-218.93495 z"
         id="path2724"
         sodipodi:nodetypes="ccccc" /><path
         sodipodi:nodetypes="ccccc"
         style="fill:#3d9c46"
         d="m 318.88136,-342.33612 c 44.33447,-80.28663 142.73158,-144.80912 249.81078,-144.58165 v 66.80427 c -91.5423,3.25862 -154.86232,49.70195 -192.57246,110.94732 -21.80068,-12.61181 -32.43774,-18.8683 -57.23832,-33.16994 z"
         id="path2722" /><path
         id="path2802"
         d="M 375.79609,-78.705606 C 418.02494,-8.400441 492.50271,31.902242 568.84357,32.845032 l 0.26515,65.700088 C 468.87671,99.15994 370.96205,44.711786 318.49119,-45.589701 Z"
         style="fill:#eeeeec"
         sodipodi:nodetypes="ccccc" /><path
         style="fill:#304a96"
         d="m 381.88504,-306.1007 189.29399,-109.0195 189.59581,109.4965 -189.38407,108.9089 z"
         id="path5" /><path
         style="fill:#304a96"
         d="m 573.42041,98.550272 c -0.17174,-25.478794 -0.0381,-43.044038 0.13441,-65.705606 90.2757,0.02478 165.00317,-60.801773 192.52912,-111.297767 24.80027,14.313198 34.06987,19.70304 57.53369,33.240121 C 742.69236,93.688841 594.18125,98.550272 573.42041,98.550272 Z"
         id="path2720"
         sodipodi:nodetypes="ccccc" /><path
         style="fill:#ffffff;fill-opacity:1"
         d="m 525.83331,-54.3672 c 0,-12.8794 -0.18785,-15.0047 -1.45637,-16.4848 -0.80099,-0.9346 -17.74687,-10.5804 -37.65751,-21.4352 -39.42884,-21.4957 -43.11734,-23.7008 -48.34577,-28.9025 -6.35668,-6.3241 -6.38498,-6.4874 -6.709,-38.716 -0.27837,-27.6876 -0.23649,-28.6061 1.36101,-29.7755 3.33671,-2.4428 2.77429,-2.7068 51.01484,23.9423 42.21421,23.3199 40.0044,22.2086 41.00746,20.6232 0.4179,-0.6605 0.7656,-7.8068 0.77262,-15.8805 0.0123,-12.806 -0.17306,-14.891 -1.44365,-16.3366 -1.69762,-1.9317 -79.42814,-45.0687 -85.54321,-47.4727 -14.15961,-5.5667 -23.08701,-3.2054 -27.74994,7.3399 -2.87751,6.5075 -3.41206,13.5011 -3.4028,44.5182 0.0123,40.5305 1.67261,51.2887 10.14752,65.7446 4.12576,7.0375 15.55061,18.6858 23.22072,23.675 3.0309,1.9715 22.87912,13.0527 44.10716,24.6248 28.1953,15.3702 38.87673,20.8086 39.63666,20.1809 0.76092,-0.6286 1.04026,-4.8295 1.04026,-15.6451 z"
         id="path7" /><path
         style="fill:#ffffff;fill-opacity:1"
         d="m 538.00578,-246.4391 c 1.8619,-0.9499 3.94505,-2.5913 4.62923,-3.6475 0.68418,-1.0562 7.14246,-13.2489 14.35183,-27.0948 7.20928,-13.8459 13.36854,-25.1743 13.6872,-25.1743 0.31862,0 6.55669,11.6423 13.86239,25.8717 9.12423,17.7716 14.12647,26.6196 15.97682,28.2602 5.52355,4.8973 15.957,5.3847 22.22718,1.0383 3.11324,-2.1581 5.16527,-5.9004 26.52975,-48.3828 12.73554,-25.3241 22.95226,-46.5735 22.70384,-47.2209 -0.36402,-0.9486 -3.08097,-1.1746 -14.00121,-1.1643 -7.45227,0.01 -13.9729,0.2879 -14.49036,0.6242 -0.5175,0.3362 -7.75215,14.2361 -16.07706,30.8884 -8.41977,16.8422 -15.44834,29.9516 -15.83964,29.5435 -0.38693,-0.4035 -6.40913,-11.7812 -13.38277,-25.2838 -6.97365,-13.5026 -13.60973,-25.8081 -14.74692,-27.3455 -5.58649,-7.5527 -18.99772,-7.7743 -25.18097,-0.416 -1.12534,1.3392 -8.03801,13.9343 -15.36147,27.989 -7.32343,14.0548 -13.51638,25.5579 -13.76209,25.5626 -0.24574,0.01 -6.97247,-13.1925 -14.9484,-29.327 -7.97589,-16.1345 -15.04195,-29.9908 -15.7023,-30.7918 -1.05072,-1.2745 -2.82116,-1.4547 -14.17894,-1.4436 -7.13809,0.01 -13.50438,0.3458 -14.1473,0.7528 -1.28275,0.8121 5.24946,15.0776 30.1353,65.8113 13.38856,27.2946 15.09224,29.8906 21.0805,32.1204 4.29691,1.6001 12.31022,1.0364 16.63539,-1.1701 z"
         id="path6" /><path
         id="path2"
         style="fill:#ffffff;fill-opacity:1"
         d="m 682.22012,-211.44687 c -0.54198,0.0238 -1.11699,0.11267 -1.74223,0.25001 -3.23279,0.71 -8.17279,5.65538 -10.39867,10.40648 -0.95594,2.04049 -9.99789,27.11671 -20.09028,55.72388 -10.09239,28.60717 -22.69653,64.291033 -28.00843,79.298618 -5.31191,15.007585 -9.42515,27.661613 -9.14083,28.121713 0.50533,0.817599 7.62117,-2.748058 18.26994,-9.156452 l 4.99229,-3.003972 7.48845,-21.625476 7.49235,-21.621569 26.60996,-14.773762 c 14.6374,-8.12439 26.87974,-14.76986 27.20373,-14.76986 0.32394,0 3.28086,4.88211 6.57045,10.8518 3.28963,5.9697 6.63386,11.65791 7.42985,12.640907 l 1.44535,1.789102 9.46896,-5.375119 c 5.20735,-2.9567 9.58576,-5.99024 9.73068,-6.74234 0.14473,-0.75209 -8.12462,-17.22398 -18.37541,-36.60236 -10.25076,-19.37838 -21.94293,-41.52865 -25.98494,-49.22374 -6.95954,-13.24959 -9.16737,-16.3546 -12.96122,-16.18786 z m -3.79306,40.82903 c 1.17232,0.37579 14.79407,25.52445 14.27766,26.35995 -0.46401,0.7508 -25.23486,14.38527 -28.08265,15.45737 -1.12476,0.4234 0.14766,-4.11538 5.82435,-20.75436 3.99567,-11.71209 7.58663,-21.18916 7.98064,-21.06296 z" /><g
         id="g1"
         transform="matrix(2.000044,0,0,2.000044,910.09622,-636.42109)"><g
           id="g2"
           transform="matrix(0.12458447,0,0,0.12458447,-46.754768,344.21344)"><g
             id="g3"
             transform="translate(-93.696521,-2082.5864)"><circle
               cx="87.887909"
               cy="2073.0198"
               r="88.5"
               fill="none"
               stroke="#000000"
               stroke-width="20"
               id="circle1" /><path
               d="m 82.487909,2065.0198 c 5.500001,0 9.500001,-1.1 11.900001,-3.2 2.4,-2 3.7,-5.4 3.7,-10.2 0,-4.7 -1.3,-8 -3.7,-10.1 -2.4,-2 -6.4,-3 -11.900001,-3 h -11.2 v 26.5 h 11.2 m -11.2,18.3 v 39 H 44.687911 v -103.1 h 40.599998 c 13.600001,0 23.500001,2.3 29.800001,6.9 6.4,4.5 9.5,11.7 9.5,21.6 0,6.8 -1.6,12.4 -4.9,16.8 -3.3,4.3 -8.2,7.6 -14.9,9.6 3.7,0.9 6.9,2.8 9.8,5.7 2.9,2.9 5.8,7.3 8.7,13.3 l 14.5,29.2 h -28.3 l -12.6,-25.6 c -2.5,-5.1 -5.1,-8.7 -7.7,-10.5 -2.600001,-1.9 -6.100001,-2.9 -10.400001,-2.9 h -7.5"
               id="path1" /></g></g></g></g></g></svg>

<?xml version="1.0" encoding="UTF-8" standalone="no"?>
<!-- Created with Inkscape (http://www.inkscape.org/) -->

<svg
   width="292.72525"
   height="293.19345"
   id="svg2"
   sodipodi:version="0.32"
   inkscape:version="1.3.2 (091e20e, 2023-11-25)"
   sodipodi:docname="WCA Logo.svg"
   inkscape:output_extension="org.inkscape.output.svg.inkscape"
   version="1.0"
   xml:space="preserve"
   inkscape:export-filename="apple-touch-icon.png"
   inkscape:export-xdpi="83.955856"
   inkscape:export-ydpi="83.955856"
   xmlns:inkscape="http://www.inkscape.org/namespaces/inkscape"
   xmlns:sodipodi="http://sodipodi.sourceforge.net/DTD/sodipodi-0.dtd"
   xmlns="http://www.w3.org/2000/svg"
   xmlns:svg="http://www.w3.org/2000/svg"
   xmlns:rdf="http://www.w3.org/1999/02/22-rdf-syntax-ns#"
   xmlns:cc="http://creativecommons.org/ns#"
   xmlns:dc="http://purl.org/dc/elements/1.1/"><defs
     id="defs4"><inkscape:perspective
       sodipodi:type="inkscape:persp3d"
       inkscape:vp_x="0 : 526.18109 : 1"
       inkscape:vp_y="0 : 1000 : 0"
       inkscape:vp_z="744.09448 : 526.18109 : 1"
       inkscape:persp3d-origin="372.04724 : 350.78739 : 1"
       id="perspective10" /><inkscape:perspective
       id="perspective2708"
       inkscape:persp3d-origin="0.5 : 0.33333333 : 1"
       inkscape:vp_z="1 : 0.5 : 1"
       inkscape:vp_y="0 : 1000 : 0"
       inkscape:vp_x="0 : 0.5 : 1"
       sodipodi:type="inkscape:persp3d" /></defs><sodipodi:namedview
     id="base"
     pagecolor="#ffffff"
     bordercolor="#666666"
     borderopacity="1.0"
     gridtolerance="10000"
     guidetolerance="10"
     objecttolerance="10"
     inkscape:pageopacity="0.0"
     inkscape:pageshadow="2"
     inkscape:zoom="2.7459777"
     inkscape:cx="155.31809"
     inkscape:cy="156.22851"
     inkscape:document-units="px"
     inkscape:current-layer="g3312"
     showgrid="false"
     showguides="true"
     inkscape:guide-bbox="true"
     inkscape:window-width="1800"
     inkscape:window-height="1097"
     inkscape:window-x="1"
     inkscape:window-y="44"
     inkscape:showpageshadow="2"
     inkscape:pagecheckerboard="0"
     inkscape:deskcolor="#d1d1d1"
     inkscape:window-maximized="0" /><metadata
     id="metadata7"><rdf:RDF><cc:Work
         rdf:about=""><dc:format>image/svg+xml</dc:format><dc:type
           rdf:resource="http://purl.org/dc/dcmitype/StillImage" /></cc:Work></rdf:RDF></metadata><g
     inkscape:label="Layer 1"
     inkscape:groupmode="layer"
     id="layer1"
     transform="translate(-440.9061,488.30753)"><g
       id="g3312"
       transform="matrix(0.499989,0,0,0.499989,301.618,-244.854)"><path
         style="fill:#ddda45"
         d="m 573.68539,-420.1139 c -0.024,-22.87397 -0.026,-31.86369 -5.7e-4,-66.80447 120.72052,-0.20391 208.79981,73.54821 249.85002,144.7927 -51.70988,30.08713 -57.38751,33.35974 -57.38751,33.35974 -37.92855,-64.86818 -110.15284,-110.57228 -192.46194,-111.34797 z"
         id="path8"
         sodipodi:nodetypes="ccccc" /><path
         style="fill:#ddda45"
         d="m 378.94821,-82.4139 0.0173,-219.96377 190.14321,109.81717 -0.20509,218.9279 C 505.27033,-9.3445518 378.94821,-82.4139 378.94821,-82.4139 Z"
         id="path2730" /><path
         sodipodi:nodetypes="ccccc"
         style="fill:#e7762a"
         d="m 768.51842,-82.684194 c 41.54138,-74.988706 34.9409,-159.138396 -0.0341,-222.019506 0.45369,-1.1825 38.32522,-22.14818 57.38318,-33.37066 58.66,107.44561 41.82569,216.70743 0.16275,288.696156 -23.31082,-13.08668 -35.58051,-20.368143 -57.51178,-33.30599 z"
         id="path2726" /><path
         style="fill:#e02826"
         d="m 316.10392,-337.50816 57.66718,32.38539 c -40.29696,80.9231 -36.51812,142.25774 -0.32872,222.33678 l -57.41881,32.897031 c -57.75083,-104.048031 -41.37164,-214.335501 0.0804,-287.619201 z"
         id="path4" /><path
         style="fill:#e02826"
         d="m 573.67282,-192.56755 c 64.29262,-37.49558 189.67915,-108.93736 189.67915,-108.93736 -0.77393,146.84157 0.0609,9.34343 -0.24972,219.153082 -62.29182,37.076349 -120.52156,69.866445 -189.54695,108.719228 -0.36127,-46.067781 0.11752,-53.392254 0.11752,-218.93495 z"
         id="path2724"
         sodipodi:nodetypes="ccccc" /><path
         sodipodi:nodetypes="ccccc"
         style="fill:#3d9c46"
         d="m 318.88136,-342.33612 c 44.33447,-80.28663 142.73158,-144.80912 249.81078,-144.58165 v 66.80427 c -91.5423,3.25862 -154.86232,49.70195 -192.57246,110.94732 -21.80068,-12.61181 -32.43774,-18.8683 -57.23832,-33.16994 z"
         id="path2722" /><path
         id="path2802"
         d="M 375.79609,-78.705606 C 418.02494,-8.400441 492.50271,31.902242 568.84357,32.845032 l 0.0601,66.636998 C 468.67166,100.09685 370.96205,44.711786 318.49119,-45.589701 Z"
         style="fill:#eeeeec"
         sodipodi:nodetypes="ccccc" /><path
         style="fill:#304a96"
         d="m 381.88504,-306.1007 189.29399,-109.0195 189.59581,109.4965 -189.38407,108.9089 z"
         id="path5" /><path
         style="fill:#304a96"
         d="m 573.684,99.48203 c -0.17174,-25.478794 -0.30174,-43.975796 -0.12918,-66.637364 90.2757,0.02478 165.00317,-60.801773 192.52912,-111.297767 24.80027,14.313198 34.06987,19.70304 57.53369,33.240121 C 742.69236,93.688841 594.44484,99.48203 573.684,99.48203 Z"
         id="path2720"
         sodipodi:nodetypes="ccccc" /><path
         style="fill:#ffffff;fill-opacity:1"
         d="m 525.83331,-54.3672 c 0,-12.8794 -0.18785,-15.0047 -1.45637,-16.4848 -0.80099,-0.9346 -17.74687,-10.5804 -37.65751,-21.4352 -39.42884,-21.4957 -43.11734,-23.7008 -48.34577,-28.9025 -6.35668,-6.3241 -6.38498,-6.4874 -6.709,-38.716 -0.27837,-27.6876 -0.23649,-28.6061 1.36101,-29.7755 3.33671,-2.4428 2.77429,-2.7068 51.01484,23.9423 42.21421,23.3199 40.0044,22.2086 41.00746,20.6232 0.4179,-0.6605 0.7656,-7.8068 0.77262,-15.8805 0.0123,-12.806 -0.17306,-14.891 -1.44365,-16.3366 -1.69762,-1.9317 -79.42814,-45.0687 -85.54321,-47.4727 -14.15961,-5.5667 -23.08701,-3.2054 -27.74994,7.3399 -2.87751,6.5075 -3.41206,13.5011 -3.4028,44.5182 0.0123,40.5305 1.67261,51.2887 10.14752,65.7446 4.12576,7.0375 15.55061,18.6858 23.22072,23.675 3.0309,1.9715 22.87912,13.0527 44.10716,24.6248 28.1953,15.3702 38.87673,20.8086 39.63666,20.1809 0.76092,-0.6286 1.04026,-4.8295 1.04026,-15.6451 z"
         id="path7" /><path
         style="fill:#ffffff;fill-opacity:1"
         d="m 538.00578,-246.4391 c 1.8619,-0.9499 3.94505,-2.5913 4.62923,-3.6475 0.68418,-1.0562 7.14246,-13.2489 14.35183,-27.0948 7.20928,-13.8459 13.36854,-25.1743 13.6872,-25.1743 0.31862,0 6.55669,11.6423 13.86239,25.8717 9.12423,17.7716 14.12647,26.6196 15.97682,28.2602 5.52355,4.8973 15.957,5.3847 22.22718,1.0383 3.11324,-2.1581 5.16527,-5.9004 26.52975,-48.3828 12.73554,-25.3241 22.95226,-46.5735 22.70384,-47.2209 -0.36402,-0.9486 -3.08097,-1.1746 -14.00121,-1.1643 -7.45227,0.01 -13.9729,0.2879 -14.49036,0.6242 -0.5175,0.3362 -7.75215,14.2361 -16.07706,30.8884 -8.41977,16.8422 -15.44834,29.9516 -15.83964,29.5435 -0.38693,-0.4035 -6.40913,-11.7812 -13.38277,-25.2838 -6.97365,-13.5026 -13.60973,-25.8081 -14.74692,-27.3455 -5.58649,-7.5527 -18.99772,-7.7743 -25.18097,-0.416 -1.12534,1.3392 -8.03801,13.9343 -15.36147,27.989 -7.32343,14.0548 -13.51638,25.5579 -13.76209,25.5626 -0.24574,0.01 -6.97247,-13.1925 -14.9484,-29.327 -7.97589,-16.1345 -15.04195,-29.9908 -15.7023,-30.7918 -1.05072,-1.2745 -2.82116,-1.4547 -14.17894,-1.4436 -7.13809,0.01 -13.50438,0.3458 -14.1473,0.7528 -1.28275,0.8121 5.24946,15.0776 30.1353,65.8113 13.38856,27.2946 15.09224,29.8906 21.0805,32.1204 4.29691,1.6001 12.31022,1.0364 16.63539,-1.1701 z"
         id="path6" /><path
         id="path2"
         style="fill:#ffffff;fill-opacity:1"
         d="M 682.22012 -211.44687 C 681.67814 -211.42305 681.10313 -211.3342 680.47789 -211.19686 C 677.2451 -210.48686 672.3051 -205.54148 670.07922 -200.79038 C 669.12328 -198.74989 660.08133 -173.67367 649.98894 -145.0665 C 639.89655 -116.45933 627.29241 -80.775467 621.98051 -65.767882 C 616.6686 -50.760297 612.55536 -38.106269 612.83968 -37.646169 C 613.34501 -36.82857 620.46085 -40.394227 631.10962 -46.802621 L 636.10191 -49.806593 L 643.59036 -71.432069 L 651.08271 -93.053638 L 677.69267 -107.8274 C 692.33007 -115.95179 704.57241 -122.59726 704.8964 -122.59726 C 705.22034 -122.59726 708.17726 -117.71515 711.46685 -111.74546 C 714.75648 -105.77576 718.10071 -100.08755 718.8967 -99.104553 L 720.34205 -97.315451 L 729.81101 -102.69057 C 735.01836 -105.64727 739.39677 -108.68081 739.54169 -109.43291 C 739.68642 -110.185 731.41707 -126.65689 721.16628 -146.03527 C 710.91552 -165.41365 699.22335 -187.56392 695.18134 -195.25901 C 688.2218 -208.5086 686.01397 -211.61361 682.22012 -211.44687 z M 678.42706 -170.61784 C 679.59938 -170.24205 693.22113 -145.09339 692.70472 -144.25789 C 692.24071 -143.50709 667.46986 -129.87262 664.62207 -128.80052 C 663.49731 -128.37712 664.76973 -132.9159 670.44642 -149.55488 C 674.44209 -161.26697 678.03305 -170.74404 678.42706 -170.61784 z " /><g
         id="g1"
         transform="matrix(2.000044,0,0,2.000044,910.09622,-636.42109)"><g
           id="g2"
           transform="matrix(0.12458447,0,0,0.12458447,-46.754768,344.21344)"><g
             id="g3"
             transform="translate(-93.696521,-2082.5864)"><circle
               cx="87.887909"
               cy="2073.0198"
               r="88.5"
               fill="none"
               stroke="#000000"
               stroke-width="20"
               id="circle1" /><path
               d="m 82.487909,2065.0198 c 5.500001,0 9.500001,-1.1 11.900001,-3.2 2.4,-2 3.7,-5.4 3.7,-10.2 0,-4.7 -1.3,-8 -3.7,-10.1 -2.4,-2 -6.4,-3 -11.900001,-3 h -11.2 v 26.5 h 11.2 m -11.2,18.3 v 39 H 44.687911 v -103.1 h 40.599998 c 13.600001,0 23.500001,2.3 29.800001,6.9 6.4,4.5 9.5,11.7 9.5,21.6 0,6.8 -1.6,12.4 -4.9,16.8 -3.3,4.3 -8.2,7.6 -14.9,9.6 3.7,0.9 6.9,2.8 9.8,5.7 2.9,2.9 5.8,7.3 8.7,13.3 l 14.5,29.2 h -28.3 l -12.6,-25.6 c -2.5,-5.1 -5.1,-8.7 -7.7,-10.5 -2.600001,-1.9 -6.100001,-2.9 -10.400001,-2.9 h -7.5"
               id="path1" /></g></g></g></g></g></svg>
